X: 30301
M: 2/4
L: 1/16
K: D
V: 1 staves=2
d2d2e2e2 | f4 d2 ef |\
g2gf e2e2 | fgfe d2d2 |\
[1 dedc BcBA | ABAG FEFG :|\
[2 efed cdec | d4 z2 ||
|: f2 |\
e2(3(AAA) A2f2 | e2(3(AAA) A2f2 |\
e2f2e2f2 | e2(3(AAA) A2g2 |\
f2(3(ddd) d2g2 | f2(3(ddd) d2g2 |\
f2g2f2g2 | f2(3(ddd) d2 fg |
abag fgfe | dedc B2ef |\
gagf efed | cdcB A2FG |\
d2df edef | d4 z2 :|
V: 2
e2ed c2c2 | d2dA F2F2 |[1 A4 E4 |
|: d2 |\
c2z2 z2d2 | c2z2 z2d2 | c2d2c2d2 | c2z2 z2e2 |
d2z2 z2e2 | d2z2 z2e2 | d2e2d2e2 |\
d2z2 z2de | f2fe d2dc | B2BA G2cd |
e2ed c2cB | A2AG F2DE | F2F2G2F2 |\


